X:252
T:Steirer (50.)
C:traditionell
A:Salzkammergut
S:MIDI erhalten von Christian Amon. Nach einer kopie im besitz von Johann Stoeckl eines manuscriptes. Stoeckl(zitiert von Amon): "diese sammlung wurde 1935 im hause der familie Hohenlohe-Schillingfuerst gefunden. Sie wurde von einem der beiden brueder Steinegger 1866 verfasst. Die originale sind im Ausseer Kammerhofmuseum".
M:3/4
L:1/8
K:G
V:1
ed d2 ed | dg b3 g | fd' c'b c'f | gd' bg d2 |\
ed d2 ed | dg b3 g | fd' c'b c'f | g4 z2 |*
V:2
cB B2 cB | Bd g3 B | db ag ad | db gd B2 |\
cB B2 cB | Bd g3 B | db ag ad | B4 z2 |*
